X: 1
T: O'Rourke's
R: reel
M: 4/4
L: 1/8
K: Amix
|:ed|cAeA fAeA| cAeA dfed| cAeA fAeA| fage d2:||ef| g2 fg e2 ef| gefd ea a2| gefd edcd| eage d2 ef|g2 fg e2 ef| gefd ea a2|bgaf gfed| eaaf gfed|


Tune 90	Setting 12628

